X:1
T:Entrance of the Guests and Waltz
T:Entrance of the Guests and Waltz
T:Swan Lake, Piano Arrangement for 3 hands
T:Hinci
C:Hinci
%%score { ( 1 4 ) | 2 | 3 }
L:1/8
Q:3/8=80
M:6/8
K:Ab
V:1 treble nm="Piano" snm="Pno."
V:4 treble 
V:2 bass 
V:3 bass 
V:1
"^Allegro."!f! EE/E/E EBG | !>!e3- e z z |!f! BB/B/B Beg | BB/B/B Beg | fef efe | fge !fermata!f3 | %6
"_rit."[Q:1/4=116] gg/g/[Q:1/4=113]g[Q:1/4=110] g[Q:1/4=107]e[Q:1/4=104]g | B6 | %8
!p![Q:1/4=125] .[FG]2 z .[=EG]2 z | .[FA]2 z3/4 [Cc]/4 !>![Cc]3 |!p! .[FG]2 z .[=EG]2 z | %11
 .[FA]2 z3/4 [Cc]/4 !>![Cc]3 | .[_EF]2 z .[=DF]2 z | .[EG]2 z3/4 [B,B]/4!mp! !>![B,B]3 | %14
!p! [EG](g.f .[E=Ae].=d.c | .[=DB]).[DB=d].[DBf] .[Bb]2 z |!p! .[FG]2 z .[=EG]2 z | %17
 .[FA]2 z3/4 [Cc]/4 !>![Cc]3 |!p! .[FG]2 z .[=EG]2 z | .[FA]2 z3/4 [Cc]/4 !>![Cc]3 | %20
 .[_EF]2 z .[=DF]2 z | .[EG]2 z3/4 [GB]/4!p! !>![GB]3 | %22
"_cresc." .[EG]2 z3/4[Q:1/4=110] [Bd]/4!mp! !>![Bd]3 | %23
 .[EG]2 z3/4[Q:1/4=100] [df]/4!mp! !>![df]3- | %24
[M:2/4] [df]"^Ritenuto.""_ad libitum."[Q:1/4=80][c=e] [_eg][Q:1/4=76][df] | %25
[Q:1/4=73] [=Ac][ce][Q:1/4=69]!>(! [Bd]2- | [Bd][Q:1/4=64][=Ac] [Bd][Q:1/4=42][^FA] | %27
[Q:1/4=35] [Ac]!>)!!p![GB] !fermata!z2 ||[M:3/4]"^Tempo di Valse."[Q:1/4=185] z6 | z6 |!mf! e6- | %31
 e2 (d3 c) | (B4 A2) | z6 | [A=Bg]6- | [ABg]2 (f3 e) | ([Ac=d]4 e2) | z6 | [Bb]4 [Aa]2- | %39
 [Aa]2 [Cc]4 | [Bb]4 [Aa]2- | [Aa]2 [Cc]4 |!<(! =d4 e2- | e2 =e4 | (g2 f2) c2-!<)! | %45
!f!!>(! c2 (=A2 B2)!>)! |!mf! e6- | e2 (d3 c) | (B4 A2) | z6 | [A=Bg]6- | [ABg]2 (f3 e) | %52
 ([Ac=d]4 e2) | z6 | [Bb]4 [Aa]2- | [Aa]2 [Cc]4 | [Bb]4 [Aa]2- | [Aa]2 [Cc]4 | [Gg]6- | %59
 [Gg]2 [Ee]3 =d | c z z2 [Gg]2- | [Gg]2 [Ee]3 =d | (c!>(!c' =bc' ba) | (ge =dg ed) | (c=d eg ed) | %65
 (c=B cA G!>)!!p!E) | (C=D E=B, CG,) |!<(! (A,G, =A,=B, C=D)!<)! || %68
[M:6/8]!f![Q:1/4=120] EE/E/E EBG | !>!e3- e z2 |!f! BB/B/B Beg | BB/B/B Beg | fef efe | %73
 fge !fermata!f3 |"_rit."[Q:1/4=116] gg/[Q:1/4=113]g/g[Q:1/4=110] g[Q:1/4=107]e[Q:1/4=104]g | B6 | %76
!p![Q:1/4=125] .[FG]2 z .[=EG]2 z | .[FA]2 z/ z/4 [Cc]/4 !>![Cc]3 |!p! .[FG]2 z .[=EG]2 z | %79
 .[FA]2 z/ z/4 [Cc]/4 !>![Cc]3 | .[_EF]2 z .[=DF]2 z | .[EG]2 z/ z/4 [B,B]/4!mp! !>![B,B]3 | %82
!p! [EG](g.f .[E=Ae].=d.c | .[=DB]).[DB=d].[DBf] .[Bb]2 z |!p! .[FG]2 z .[=EG]2 z | %85
 .[FA]2 z/ z/4 [Cc]/4 !>![Cc]3 |!p! .[FG]2 z .[=EG]2 z | .[FA]2 z/ z/4 [Cc]/4 !>![Cc]3 | %88
 .[_EF]2 z .[=DF]2 z | .[EG]2 z/ z/4 [GB]/4!p! !>![GB]3 | %90
"_cresc." .[EG]2 z/ z/4[Q:1/4=110] [Bd]/4!mp! !>![Bd]3 | %91
 .[EG]2 z/ z/4[Q:1/4=100] [df]/4!mp! !>![df]3- | %92
[M:2/4] [df]"^Ritenuto.""_ad libitum."[Q:1/4=80][c=e] [_eg][Q:1/4=76][df] | %93
[Q:1/4=73] [=Ac][ce][Q:1/4=69]!>(! [Bd]2- | [Bd][Q:1/4=64][=Ac] [Bd][Q:1/4=42][^FA] | %95
[Q:1/4=35] [Ac]!>)!!p![GB] !fermata!z2 |:[M:3/4]"^Tempo di Valse."[Q:1/4=185]!ff! [fd'f']6- | %97
 [fd'f']2 [ee']2 [dd']2 | ([=B=b]4 [cc']2) |!mf! z ([Aca][dfd'][Aca][dfd'][Aca]) | %100
 ([cec'][ec'e']) [db]4 | z ([GBg][cec'][GBg][cec'][GBg]) | ([Bdb][ebe']) [ca]4 | %103
 z!<(! [Aa][Bb][cc'][dd'][ee']!<)! |!ff! [fd'f']6- | [fd'f']2 [ee']2 [dd']2 | ([=B=b]4 [cc']2) | %107
!p! z (=B c=d ef) | (ag fe =dc) | (eg =d3 e) | (c=d fe dc) | z (=B c=d ef) | (ag fe =dc) | %113
 (eg =d3 e) | (c=d fe dc) ||1!<(! ([=B=b][cc'] [Bb][cc'] [dd']!<)!!ff![ee']) :|2 (=Bc AG) (E=D | %117
 C=D) (E=B, CG,) |!<(! (A,G, =A,=B, C=D)!<)! ||[M:6/8]!f![Q:1/4=120] EE/E/E EBG | !>!e3- e z2 | %121
!f! BB/B/B Beg | BB/B/B Beg | fef efe | fge !fermata!f3 | %125
"_rit."[Q:1/4=116] gg/[Q:1/4=113]g/g[Q:1/4=110] g[Q:1/4=107]e[Q:1/4=104]g | B6 | %127
!p![Q:1/4=125] .[FG]2 z .[=EG]2 z | .[FA]2 z/ z/4 [Cc]/4 !>![Cc]3 |!p! .[FG]2 z .[=EG]2 z | %130
 .[FA]2 z/ z/4 [Cc]/4 !>![Cc]3 | .[_EF]2 z .[=DF]2 z | .[EG]2 z/ z/4 [B,B]/4!mp! !>![B,B]3 | %133
!p! [EG](g.f .[E=Ae].=d.c | .[=DB]).[DB=d].[DBf] .[Bb]2 z |!p! .[FG]2 z .[=EG]2 z | %136
 .[FA]2 z/ z/4 [Cc]/4 !>![Cc]3 |!p! .[FG]2 z .[=EG]2 z | .[FA]2 z/ z/4 [Cc]/4 !>![Cc]3 | %139
 .[_EF]2 z .[=DF]2 z | .[EG]2 z/ z/4 [GB]/4!p! !>![GB]3 | %141
"_cresc." .[EG]2 z/ z/4[Q:1/4=110] [Bd]/4!mp! !>![Bd]3 | %142
 .[EG]2 z/ z/4[Q:1/4=100] [df]/4!mp! !>![df]3- || %143
[M:2/4] [df]"^Ritenuto.""_ad libitum."[Q:1/4=80][c=e] [_eg][Q:1/4=76][df] | %144
[Q:1/4=73] [=Ac][ce][Q:1/4=69]!>(! [Bd]2- | [Bd][Q:1/4=64][=Ac] [Bd][^FA] | %146
[Q:1/4=42] [Ac]!>)!!p![Q:1/4=35][GB] !fermata!z2 ||[M:3/4]"^Tempo di Valse."[Q:1/4=185] z6 | z6 | %149
!mf! e6- | e2 (d3 c) | (B4 A2) | z6 | [A=Bg]6- | [ABg]2 (f3 e) | ([Ac=d]4 e2) | z6 | [Bb]4 [Aa]2- | %158
 [Aa]2 [Cc]4 | [Bb]4 [Aa]2- | [Aa]2 [Cc]4 |!<(! =d4 e2- | e2 =e4 | (g2 f2) c2-!<)! | %164
!f!!>(! c2 (=A2 B2)!>)! |!mf! e6- | e2 (d3 c) | (B4 A2) | z6 | [A=Bg]6- | [ABg]2 (f3 e) | %171
 ([Ac=d]4 e2) | z6 | [Bb]4 [Aa]2- | [Aa]2 [Cc]4 | [Bb]4 [Aa]2- | [Aa]2 [Cc]4 | [Gg]6- | %178
 [Gg]2 [Ee]3 =d | c2 z2 [Gg]2- | [Gg]2 [Ee]3 =d | (c=B ce ^fg) | %182
!<(! ([=B=b][cc'] [Bb][cc'] [dd'][ee'])!<)! |:!ff! [fd'f']6- | [fd'f']2 [ee']2 [dd']2 | %185
 ([=B=b]4 [cc']2) |!mf! z ([Aca][dfd'][Aca][dfd'][Aca]) | ([cec'][ec'e']) [db]4 | %188
 z ([GBg][cec'][GBg][cec'][GBg]) | ([Bdb][ebe']) [ca]4 | z!<(! [Aa][Bb][cc'][dd'][ee']!<)! | %191
!ff! [fd'f']6- | [fd'f']2 [ee']2 [dd']2 | ([=B=b]4 [cc']2) |!p! z (=B c=d ef) | (ag fe =dc) | %196
 (eg =d3 e) | (c=d fe dc) | z (=B c=d ef) | (ag fe =dc) | (eg =d3 e) | (c=d fe dc) ||1 %202
!<(! ([=B=b][cc'] [Bb][cc'] [dd']!<)!!ff![ee']) :|2!<(! (=Bc de cd)!<)! ||!mf! e6- | e2 (d3 c) | %206
 (B4 A2) | z6 | [A=Bg]6- | [ABg]2 (f3 e) | ([Ac=d]4 e2) | z6 | [Bb]4 [Aa]2- | [Aa]2 [Cc]4 | %214
 [Bb]4 [Aa]2- | [Aa]2 [Cc]4 |!<(! =d4 e2- | e2 =e4 | (g2 f2) c2-!<)! |!f!!>(! c2 (=A2 B2)!>)! | %220
!mf! e6- | e2 (d3 c) | (B4 A2) | z6 | [A=Bg]6- | [ABg]2 (f3 e) | ([Ac=d]4 e2) | z6 | [Bb]4 [Aa]2- | %229
 [Aa]2 [Cc]4 | [Bb]4 [Aa]2- | [Aa]2 [=D=d]4 | [Ff]4 [Cc]2- | [Cc]2 [G,G]4 | %234
 [A,CA]2!p! .[cac'].[dac'd'] .[=dac'=d'].[eac'e'] | .[cea] z!f! [FA=B]2 [FAc]2 |: %236
 [ca]2 [cg]2 [Acf]2- | [Acf]2 [Ace]2 [Ad]2 | [Ac]2[I:staff +1] CB, A,G, | %239
[I:staff -1] z2 [FA=B]2 [FAc]2 | [FAf]2 [FAe]2 [FAd]2- | [FAd]2 [FA=B]2 [FAd]2 | %242
 [FAc]2[I:staff +1] CB, A,G, ||1[I:staff -1] z2 [FA=B]2 [FAc]2 :|2 z2!mf! (AB cd) || %245
!<(! [Ece]4 [=Ec=e]2 | [Fcf]2 ([Cc][Dd] [Ee][=E=e]) | [Fdf]4 [Gdg]2 | %248
 [F=df]2 ([=Dd][Ee] [Ff][^F^f])!<)! |!f! [Geg]4 [A=ea]2- | [Aea]2 [Afa]4 | %251
 [cfac']2 [=Bfa=b]2 [_Bf_b]2 | [EGBe]2!mf! ([CEA]B cd) |!<(! [Ece]4 [=Ec=e]2 | %254
 [Fcf]2 ([Cc][Dd] [Ee][=E=e]) | [Fdf]4 [Gdg]2 | [F=df]2 ([=Dd][Ee] [Ff][^F^f])!<)! | %257
!f! [Geg]4 [A=ea]2- | [Aea]2 [Afa]4 |!ff! [Bfb]2 [Afa]2 [Bfb]2 | [c=ec']2!f! [FA=B]2 [FAc]2 |: %261
 [ca]2 [cg]2 [Acf]2- | [Acf]2 [Ace]2 [Ad]2 | [Ac]2[I:staff +1] CB, A,G, | %264
[I:staff -1] z2 [FA=B]2 [FAc]2 | [FAf]2 [FAe]2 [FAd]2- | [FAd]2 [FA=B]2 [FAd]2 | %267
 [FAc]2[I:staff +1] CB, A,G, ||1[I:staff -1] z2 [FA=B]2 [FAc]2 :|2 z2"_dim." [FA=B]2 [FAd]2 || %270
 [FAc]2[I:staff +1] CB, A,G, |[I:staff -1] z2 [FA=B]2 [FAd]2 | [=EAc]2[I:staff +1] CB, A,F, | %273
[I:staff -1] z2!p! [=EA=B]2 [EAd]2 | [EAc]2[I:staff +1] CB, A,F, |!<(![I:staff -1] z6 | z2 (DE FG | %277
 A2)!<)! (Bc d=d) |!mf! e6- | e2 (d3 c) | (B4 A2) | z6 | [A=Bg]6- | [ABg]2 (f3 e) | ([Ac=d]4 e2) | %285
 z6 | [Bb]4 [Aa]2- | [Aa]2 [Cc]4 | [Bb]4 [Aa]2- | [Aa]2 [Cc]4 |!<(! =d4 e2- | e2 =e4 | %292
 (g2 f2) c2-!<)! |!f!!>(! c2 (=A2 B2)!>)! |!mf! e6- | e2 (d3 c) | (B4 A2) | z6 | [A=Bg]6- | %299
 [ABg]2 (f3 e) | ([Ac=d]4 e2) | z6 | [Bb]4 [Aa]2- | [Aa]2 [Cc]4 | [Bb]4 [Aa]2- | [Aa]2 [Cc]4 | %306
 [Gg]6- | [Gg]2 [Ee]3 =d | c2 z2 [Gg]2- | [Gg]2 [Ee]3 =d | (c=B ce ^fg) | %311
!<(! ([=B=b][cc'] [Bb][cc'] [dd'][ee'])!<)! |:!ff! [fd'f']6- | [fd'f']2 [ee']2 [dd']2 | %314
 ([=B=b]4 [cc']2) |!mf! z ([Aca][dfd'][Aca][dfd'][Aca]) | ([cec'][ec'e']) [db]4 | %317
 z ([GBg][cec'][GBg][cec'][GBg]) | ([Bdb][ebe']) [ca]4 | z!<(! [Aa][Bb][cc'][dd'][ee']!<)! | %320
!ff! [fd'f']6- | [fd'f']2 [ee']2 [dd']2 | ([=B=b]4 [cc']2) |!p! z (=B c=d ef) | (ag fe =dc) | %325
 (eg =d3 e) | (c=d fe dc) | z (=B c=d ef) | (ag fe =dc) | (eg =d3 e) | (c=d fe dc) ||1 %331
!<(! ([=B=b][cc'] [Bb][cc'] [dd']!<)!!ff![ee']) :|2!<(! (=Bc de cd)!<)! ||!mf! e6- | e2 (d3 c) | %335
 (B4 A2) | z6 | [A=Bg]6- | [ABg]2 (f3 e) | ([Ac=d]4 e2) | z6 | [Bb]4 [Aa]2- | [Aa]2 [Cc]4 | %343
 [Bb]4 [Aa]2- | [Aa]2 [Cc]4 |!<(! =d4 e2- | e2 =e4 | (g2 f2) c2-!<)! |!f!!>(! c2 (=A2 B2)!>)! | %349
!mf! e6- | e2 (d3 c) | (B4 A2) | z6 | [A=Bg]6- | [ABg]2 (f3 e) | ([Ac=d]4 e2) | z6 | [Bb]4 [Aa]2- | %358
 [Aa]2 [Cc]4 | [Bb]4 [Aa]2- | [Aa]2 [=D=d]4 | [Ff]4 [Cc]2- | [Cc]2 [G,G]4 | %363
 [Ace]2!ff! ([cec'][dd'] [=d=d'][ee'] | [cfc']2) ([cfc'][ee'] [=e=e'][ff'] | [Bdfb]) z (BA GF) | %366
 [ebd'e']2 (ED CB,) | [ac'e'a']2 ([cec'][dd'] [=d=d'][ee'] | [cfc']2) ([cfc'][ee'] [=e=e'][ff'] | %369
 [Bdfb]) z (BA GF) | [ebd'e']2 (ED CB,) | [ac'e'a']2 [ac'e'a']2 [fd'f']2 | %372
 [ac'e'a']2 [ac'e'a']2 [fd'f']2 | [ac'e'a']2 [ac'e'a']2 [fd'f']2 | [ac'e'a']2 [ac'e'a']2 [fd'f']2 | %375
 [ac'e'a']2 [ec'e']2 [eac']2 | [cea]2 [Ace]2 [Ac]2 |!ped! [CEA]2 z2 z2!ped-up! | [ac'e'a']2 z2 z2 | %379
 [ac'e'a']2 z2 z2 | [ac'e'a']2 z2 z2 |[Q:1/4=92] !fermata![CEA]6 |] %382
V:2
 z6 |[K:treble] EE/E/E EBG | [EG][EG]/[EG]/[EG] [EG][GB][Be] | [EG][EG]/[EG]/[EG] [EG][GB][Be] | %4
 [B=d]c[Bd] c[Bd]c | [B=d][Ee][Gc] !fermata![Bd]3 |!mf! ee/e/e [Be]GB | [EG]6 | %8
[K:bass] .[D,B,]2 z .[C,B,]2 z | .[F,C]2 z z2 z | .[D,B,]2 z .[C,B,]2 z | .[F,C]2 z z2 z | %12
 .[_C,A,]2 z .[B,,A,]2 z | .[E,B,]2 z z2 z | .[C,B,]2 z .[F,C]2 z | %15
 .[B,,B,].[F,F][I:staff -1].F[I:staff +1] .[B,F]2 z | .[D,B,]2 z .[C,B,]2 z | .[F,C]2 z z2 z | %18
 .[D,B,]2 z .[C,B,]2 z | .[F,C]2 z z2 z | .[_C,A,]2 z .[B,,A,]2 z | .[E,B,]2 z z2 z | %22
 .[E,B,]2 z z2 z | .[E,B,]2 z z2 z |[M:2/4] z4 | z4 | z4 | z4 ||[M:3/4] A,,2 [E,A,C]2 [E,A,C]2 | %29
 A,,2 [E,A,C]2 [E,A,C]2 | A,,2 [E,A,CE]2 [E,A,CE]2 | A,,2 [E,A,E]2 [E,A,E]2 | %32
 A,,2 [E,CE]2 [E,CE]2 | A,,2 [E,CE]2 [E,CE]2 | A,,2 [F,A,=B,]2 [F,A,B,]2 | %35
 A,,2 [F,A,=B,]2 [F,A,B,]2 | A,,2 [E,A,C]2 [E,A,C]2 | A,,2 [E,A,C]2 [E,A,C]2 | %38
 A,,2 [F,A,=B,=D]2 [F,A,B,D]2 | A,,2 [E,A,E]2 [E,A,E]2 | A,,2 [F,A,=B,=D]2 [F,A,B,D]2 | %41
 A,,2 [E,A,E]2 [E,A,E]2 |!<(! [A,,A,]2!8va(! [A,CA]2 [A,CA]2!8va)! | %43
 [C,C]2!8va(! [A,CA]2 [A,CA]2!8va)! | [D,D]2!8va(! [B,A]2 [B,A]2!<)!!8va)! | %45
!mf!!>(! [E,E]2!8va(! [DG]2 [DG]2!>)!!8va)! |!p! [E,,E,]2 [E,A,CE]2 [E,A,CE]2 | %47
 A,,2 [E,A,E]2 [E,A,E]2 | A,,2 [E,CE]2 [E,CE]2 | A,,2 [E,CE]2 [E,CE]2 | A,,2 [F,A,=B,]2 [F,A,B,]2 | %51
 A,,2 [F,A,=B,]2 [F,A,B,]2 | A,,2 [E,A,C]2 [E,A,C]2 | A,,2 [E,A,C]2 [E,A,C]2 | %54
 F,,2 [F,A,=B,=D]2 [F,A,B,D]2 | F,,2 [E,A,E]2 [E,A,E]2 | F,,2 [F,A,=B,=D]2 [F,A,B,D]2 | %57
 F,,2 [E,A,E]2 [E,A,E]2 | G,,2 [G,CE]2 [G,CE]2 | G,,2 [G,=B,F]2 [G,B,F]2 | G,,2 [G,CE]2 [G,CE]2 | %61
 G,,2 [G,=B,F]2 [G,B,F]2 | !arpeggio!!>![G,CE]2 z2 z2 | !arpeggio!!>![G,,G,=B,F]2 z2 z2 | %64
 !arpeggio!!>![C,E,CE]2 z2 z2 | z6 | z6 | z6 ||[M:6/8] z6 |[K:treble] EE/E/E EBG | %70
 [EG][EG]/[EG]/[EG] [EG][GB][Be] | [EG][EG]/[EG]/[EG] [EG][GB][Be] | [B=d]c[Bd] c[Bd]c | %73
 [B=d][Ee][Gc] !fermata![Bd]3 |!mf! ee/e/e [Be]GB | [EG]6 |[K:bass] .[D,B,]2 z .[C,B,]2 z | %77
 .[F,C]2 z4 | .[D,B,]2 z .[C,B,]2 z | .[F,C]2 z4 | .[_C,A,]2 z .[B,,A,]2 z | .[E,B,]2 z z2 z | %82
 .[C,B,]2 z .[F,C]2 z | .[B,,B,].[F,F][I:staff -1].F[I:staff +1] .[B,F]2 z | %84
 .[D,B,]2 z .[C,B,]2 z | .[F,C]2 z4 | .[D,B,]2 z .[C,B,]2 z | .[F,C]2 z4 | %88
 .[_C,A,]2 z .[B,,A,]2 z | .[E,B,]2 z z2 z | .[E,B,]2 z z2 z | .[E,B,]2 z z2 z |[M:2/4] z4 | z4 | %94
 z4 | z2 z2 |:[M:3/4]!f! !>![G,,G,]2 [B,DE]2 [B,DE]2 | !>![E,,E,]2 [G,B,E]2 [G,B,E]2 | %98
 !>![A,,A,]2 [A,E]2 [A,E]2 | [E,,E,]2 [A,CE]2 [A,CE]2 | [G,,G,]2 [G,B,E]2 [G,B,E]2 | %101
 [E,,E,]2 [G,B,E]2 [G,B,E]2 | [A,,A,]2 [A,CE]2 [A,CE]2 | [E,,E,]2 [A,CE]2 [A,CE]2 | %104
!f! !>![G,,G,]2 [B,DE]2 [B,DE]2 | !>![E,,E,]2 [G,B,E]2 [G,B,E]2 | !>![A,,A,]2 [A,E]2 [A,E]2 | %107
 F,2 [A,C=D]2 [A,CD]2 | G,2 [G,CE]2 [G,CE]2 | G,2 [G,=B,F]2 [G,B,F]2 | C,2 [G,CE]2 [G,CE]2 | %111
 F,2 [A,C=D]2 [A,CD]2 | G,2 [G,CE]2 [G,CE]2 | G,2 [G,=B,F]2 [G,B,F]2 | [G,CE]2 z2 z2 ||1 z6 :|2 %116
 z6 | z6 | z6 ||[M:6/8] z6 |[K:treble] EE/E/E EBG | [EG][EG]/[EG]/[EG] [EG][GB][Be] | %122
 [EG][EG]/[EG]/[EG] [EG][GB][Be] | [B=d]c[Bd] c[Bd]c | [B=d][Ee][Gc] !fermata![Bd]3 | %125
!mf! ee/e/e [Be]GB | [EG]6 |[K:bass] .[D,B,]2 z .[C,B,]2 z | .[F,C]2 z4 | .[D,B,]2 z .[C,B,]2 z | %130
 .[F,C]2 z4 | .[_C,A,]2 z .[B,,A,]2 z | .[E,B,]2 z z2 z | .[C,B,]2 z .[F,C]2 z | %134
 .[B,,B,].[F,F][I:staff -1].F[I:staff +1] .[B,F]2 z | .[D,B,]2 z .[C,B,]2 z | .[F,C]2 z4 | %137
 .[D,B,]2 z .[C,B,]2 z | .[F,C]2 z4 | .[_C,A,]2 z .[B,,A,]2 z | .[E,B,]2 z z2 z | .[E,B,]2 z z2 z | %142
 .[E,B,]2 z z2 z ||[M:2/4] z4 | z4 | z4 | z2 z2 ||[M:3/4] A,,2 [E,A,C]2 [E,A,C]2 | %148
 A,,2 [E,A,C]2 [E,A,C]2 | A,,2 [E,A,CE]2 [E,A,CE]2 | A,,2 [E,A,E]2 [E,A,E]2 | %151
 A,,2 [E,CE]2 [E,CE]2 | A,,2 [E,CE]2 [E,CE]2 | A,,2 [F,A,=B,]2 [F,A,B,]2 | %154
 A,,2 [F,A,=B,]2 [F,A,B,]2 | A,,2 [E,A,C]2 [E,A,C]2 | A,,2 [E,A,C]2 [E,A,C]2 | %157
 A,,2 [F,A,=B,=D]2 [F,A,B,D]2 | A,,2 [E,A,E]2 [E,A,E]2 | A,,2 [F,A,=B,=D]2 [F,A,B,D]2 | %160
 A,,2 [E,A,E]2 [E,A,E]2 |!<(! [A,,A,]2!8va(! [A,CA]2 [A,CA]2!8va)! | %162
 [C,C]2!8va(! [A,CA]2 [A,CA]2!8va)! | [D,D]2!8va(! [B,A]2 [B,A]2!<)!!8va)! | %164
!mf!!>(! [E,E]2!8va(! [DG]2 [DG]2!>)!!8va)! |!p! [E,,E,]2 [E,A,CE]2 [E,A,CE]2 | %166
 A,,2 [E,A,E]2 [E,A,E]2 | A,,2 [E,CE]2 [E,CE]2 | A,,2 [E,CE]2 [E,CE]2 | A,,2 [F,A,=B,]2 [F,A,B,]2 | %170
 A,,2 [F,A,=B,]2 [F,A,B,]2 | A,,2 [E,A,C]2 [E,A,C]2 | A,,2 [E,A,C]2 [E,A,C]2 | %173
 F,,2 [F,A,=B,=D]2 [F,A,B,D]2 | F,,2 [E,A,E]2 [E,A,E]2 | F,,2 [F,A,=B,=D]2 [F,A,B,D]2 | %176
 F,,2 [E,A,E]2 [E,A,E]2 | G,,2 [G,CE]2 [G,CE]2 | G,,2 [G,=B,F]2 [G,B,F]2 | G,,2 [G,CE]2 [G,CE]2 | %180
 G,,2 [G,=B,F]2 [G,B,F]2 | [C,G,CE] z z2 z2 | z6 |:!f! !>![G,,G,]2 [B,DE]2 [B,DE]2 | %184
 !>![E,,E,]2 [G,B,E]2 [G,B,E]2 | !>![A,,A,]2 [A,E]2 [A,E]2 | [E,,E,]2 [A,CE]2 [A,CE]2 | %187
 [G,,G,]2 [G,B,E]2 [G,B,E]2 | [E,,E,]2 [G,B,E]2 [G,B,E]2 | [A,,A,]2 [A,CE]2 [A,CE]2 | %190
 [E,,E,]2 [A,CE]2 [A,CE]2 |!f! !>![G,,G,]2 [B,DE]2 [B,DE]2 | !>![E,,E,]2 [G,B,E]2 [G,B,E]2 | %193
 !>![A,,A,]2 [A,E]2 [A,E]2 | F,2 [A,C=D]2 [A,CD]2 | G,2 [G,CE]2 [G,CE]2 | G,2 [G,=B,F]2 [G,B,F]2 | %197
 C,2 [G,CE]2 [G,CE]2 | F,2 [A,C=D]2 [A,CD]2 | G,2 [G,CE]2 [G,CE]2 | G,2 [G,=B,F]2 [G,B,F]2 | %201
 [G,CE]2 z2 z2 ||1 z6 :|2 z6 ||!p! A,,2 [E,A,CE]2 [E,A,CE]2 | A,,2 [E,A,E]2 [E,A,E]2 | %206
 A,,2 [E,CE]2 [E,CE]2 | A,,2 [E,CE]2 [E,CE]2 | A,,2 [F,A,=B,]2 [F,A,B,]2 | %209
 A,,2 [F,A,=B,]2 [F,A,B,]2 | A,,2 [E,A,C]2 [E,A,C]2 | A,,2 [E,A,C]2 [E,A,C]2 | %212
 A,,2 [F,A,=B,=D]2 [F,A,B,D]2 | A,,2 [E,A,E]2 [E,A,E]2 | A,,2 [F,A,=B,=D]2 [F,A,B,D]2 | %215
 A,,2 [E,A,E]2 [E,A,E]2 |!<(! [A,,A,]2!8va(! [A,CA]2 [A,CA]2!8va)! | %217
 [C,C]2!8va(! [A,CA]2 [A,CA]2!8va)! | [D,D]2!8va(! [B,A]2 [B,A]2!<)!!8va)! | %219
!mf!!>(! [E,E]2!8va(! [DG]2 [DG]2!>)!!8va)! |!p! [E,,E,]2 [E,A,CE]2 [E,A,CE]2 | %221
 A,,2 [E,A,E]2 [E,A,E]2 | A,,2 [E,CE]2 [E,CE]2 | A,,2 [E,CE]2 [E,CE]2 | A,,2 [F,A,=B,]2 [F,A,B,]2 | %225
 A,,2 [F,A,=B,]2 [F,A,B,]2 | A,,2 [E,A,C]2 [E,A,C]2 | A,,2 [E,A,C]2 [E,A,C]2 | %228
 F,,2 [F,A,C]2 [F,A,C]2 | F,,2 [F,A,C]2 [F,A,C]2 | _F,,2 [_F,A,D]2 [F,A,D]2 | %231
 _F,,2 [_F,A,]2 [F,A,]2 | [E,,E,]2 [E,A,CE]2 [E,A,E]2 | [E,,E,]2 [E,B,DE]2 [E,B,DE]2 | %234
 [A,,E,]2[K:treble] .[A,E].[A,E] .[A,E].[A,E] | .[A,E] z[K:bass]!mf! [F,A,]2 [F,A,]2 |: %236
 [F,A,C]2 [F,A,C]2 [F,A,C]2- | [F,A,C]2 [F,A,C]2 [F,A,C]2 | [F,A,C]2 C,B,, A,,G,, | %239
 [F,,F,]2 [F,A,]2 [F,A,]2 | [F,A,]2 [F,A,]2 [F,A,]2- | [F,A,]2 [F,A,]2 [F,A,]2 | %242
 [F,A,]2 C,B,, A,,G,, ||1 [F,,F,]2 [F,A,]2 [F,A,]2 :|2 [F,,F,]2 (A,B, CD) || z2 [A,,A,]4- | %246
 [A,,A,]2 [=A,,=A,]4- | [A,,A,]2 [B,,B,]4- | [B,,B,]2 [=B,,=B,]4- | [B,,B,]2 [C,C]4 | %250
 [D,D]4 [=D,=D]2- | [D,D]2 [E,E]2 [=D,=D]2 | [E,E]2 ([A,,A,]B, CD) | z2 [A,,A,]4- | %254
 [A,,A,]2 [=A,,=A,]4- | [A,,A,]2 [B,,B,]4- | [B,,B,]2 [=B,,=B,]4- | [B,,B,]2 [C,C]4 | %258
 [D,D]4 [=D,=D]2- | [D,D]2 [_D,_D]2 [D,D]2 | [C,C]2!mf! [F,A,]2 [F,A,]2 |: %261
 [F,A,C]2 [F,A,C]2 [F,A,C]2- | [F,A,C]2 [F,A,C]2 [F,A,C]2 | [F,A,C]2 C,B,, A,,G,, | %264
 [F,,F,]2 [F,A,]2 [F,A,]2 | [F,A,]2 [F,A,]2 [F,A,]2- | [F,A,]2 [F,A,]2 [F,A,]2 | %267
 [F,A,]2 C,B,, A,,G,, ||1 [F,,F,]2 [F,A,]2 [F,A,]2 :|2 [F,,F,]2 [F,A,]2 [F,A,]2 || %270
 [F,A,]2 (C,B,, A,,G,, | [F,,F,]2) [F,A,]2 [F,A,]2 | [=E,A,]2 (C,B,, A,,F,, | %273
 [=E,,=E,]2) [E,A,]2 [E,A,]2 | [E,A,]2 (C,B,, A,,F,, | [E,,E,]2) ([F,,F,][G,,G,] [A,,A,][B,,B,] | %276
 [C,C]2) (D,E, F,G, | A,2)[I:staff -1] (B,C D=D) |!p![I:staff +1] A,,2 [E,A,CE]2 [E,A,CE]2 | %279
 A,,2 [E,A,E]2 [E,A,E]2 | A,,2 [E,CE]2 [E,CE]2 | A,,2 [E,CE]2 [E,CE]2 | A,,2 [F,A,=B,]2 [F,A,B,]2 | %283
 A,,2 [F,A,=B,]2 [F,A,B,]2 | A,,2 [E,A,C]2 [E,A,C]2 | A,,2 [E,A,C]2 [E,A,C]2 | %286
 A,,2 [F,A,=B,=D]2 [F,A,B,D]2 | A,,2 [E,A,E]2 [E,A,E]2 | A,,2 [F,A,=B,=D]2 [F,A,B,D]2 | %289
 A,,2 [E,A,E]2 [E,A,E]2 |!<(! [A,,A,]2!8va(! [A,CA]2 [A,CA]2!8va)! | %291
 [C,C]2!8va(! [A,CA]2 [A,CA]2!8va)! | [D,D]2!8va(! [B,A]2 [B,A]2!<)!!8va)! | %293
!mf!!>(! [E,E]2!8va(! [DG]2 [DG]2!>)!!8va)! |!p! [E,,E,]2 [E,A,CE]2 [E,A,CE]2 | %295
 A,,2 [E,A,E]2 [E,A,E]2 | A,,2 [E,CE]2 [E,CE]2 | A,,2 [E,CE]2 [E,CE]2 | A,,2 [F,A,=B,]2 [F,A,B,]2 | %299
 A,,2 [F,A,=B,]2 [F,A,B,]2 | A,,2 [E,A,C]2 [E,A,C]2 | A,,2 [E,A,C]2 [E,A,C]2 | %302
 F,,2 [F,A,=B,=D]2 [F,A,B,D]2 | F,,2 [E,A,E]2 [E,A,E]2 | F,,2 [F,A,=B,=D]2 [F,A,B,D]2 | %305
 F,,2 [E,A,E]2 [E,A,E]2 | G,,2 [G,CE]2 [G,CE]2 | G,,2 [G,=B,F]2 [G,B,F]2 | G,,2 [G,CE]2 [G,CE]2 | %309
 G,,2 [G,=B,F]2 [G,B,F]2 | [C,G,CE] z z2 z2 | z6 |:!f! !>![G,,G,]2 [B,DE]2 [B,DE]2 | %313
 !>![E,,E,]2 [G,B,E]2 [G,B,E]2 | !>![A,,A,]2 [A,E]2 [A,E]2 | [E,,E,]2 [A,CE]2 [A,CE]2 | %316
 [G,,G,]2 [G,B,E]2 [G,B,E]2 | [E,,E,]2 [G,B,E]2 [G,B,E]2 | [A,,A,]2 [A,CE]2 [A,CE]2 | %319
 [E,,E,]2 [A,CE]2 [A,CE]2 |!f! !>![G,,G,]2 [B,DE]2 [B,DE]2 | !>![E,,E,]2 [G,B,E]2 [G,B,E]2 | %322
 !>![A,,A,]2 [A,E]2 [A,E]2 | F,2 [A,C=D]2 [A,CD]2 | G,2 [G,CE]2 [G,CE]2 | G,2 [G,=B,F]2 [G,B,F]2 | %326
 C,2 [G,CE]2 [G,CE]2 | F,2 [A,C=D]2 [A,CD]2 | G,2 [G,CE]2 [G,CE]2 | G,2 [G,=B,F]2 [G,B,F]2 | %330
 [G,CE]2 z2 z2 ||1 z6 :|2 z6 ||!p! A,,2 [E,A,CE]2 [E,A,CE]2 | A,,2 [E,A,E]2 [E,A,E]2 | %335
 A,,2 [E,CE]2 [E,CE]2 | A,,2 [E,CE]2 [E,CE]2 | A,,2 [F,A,=B,]2 [F,A,B,]2 | %338
 A,,2 [F,A,=B,]2 [F,A,B,]2 | A,,2 [E,A,C]2 [E,A,C]2 | A,,2 [E,A,C]2 [E,A,C]2 | %341
 A,,2 [F,A,=B,=D]2 [F,A,B,D]2 | A,,2 [E,A,E]2 [E,A,E]2 | A,,2 [F,A,=B,=D]2 [F,A,B,D]2 | %344
 A,,2 [E,A,E]2 [E,A,E]2 |!<(! [A,,A,]2!8va(! [A,CA]2 [A,CA]2!8va)! | %346
 [C,C]2!8va(! [A,CA]2 [A,CA]2!8va)! | [D,D]2!8va(! [B,A]2 [B,A]2!<)!!8va)! | %348
!mf!!>(! [E,E]2!8va(! [DG]2 [DG]2!>)!!8va)! |!p! [E,,E,]2 [E,A,CE]2 [E,A,CE]2 | %350
 A,,2 [E,A,E]2 [E,A,E]2 | A,,2 [E,CE]2 [E,CE]2 | A,,2 [E,CE]2 [E,CE]2 | A,,2 [F,A,=B,]2 [F,A,B,]2 | %354
 A,,2 [F,A,=B,]2 [F,A,B,]2 | A,,2 [E,A,C]2 [E,A,C]2 | A,,2 [E,A,C]2 [E,A,C]2 | %357
 F,,2 [F,A,C]2 [F,A,C]2 | F,,2 [F,A,C]2 [F,A,C]2 | _F,,2 [_F,A,D]2 [F,A,D]2 | %360
 _F,,2 [_F,A,]2 [F,A,]2 | [E,,E,]2 [E,A,CE]2 [E,A,E]2 | [E,,E,]2 [E,B,DE]2 [E,B,DE]2 | %363
 [A,,A,]2 [A,,A,]2 z2 | [F,,F,]2 [F,,F,]2 z2 | [B,,B,] z (B,A, G,F,) | [E,,E,]2 (E,D, C,B,,) | %367
 [A,,A,]2 [A,,A,]2 z2 | [F,,F,]2 [F,,F,]2 z2 | [B,,B,] z (B,A, G,F,) | [E,,E,]2 (E,D, C,B,,) | %371
 A,,2 [A,,A,]2 [D,F,D]2 | A,,2 [A,,A,]2 [D,F,D]2 | A,,2 [A,,A,]2 [D,F,D]2 | %374
 A,,2 [A,,A,]2 [D,F,D]2 | A,2 A,,2 A,,2 | A,,2 A,,2 A,,2 | [A,,A,]2 z2 z2 | [A,,A,]2 z2 z2 | %379
 [A,,A,]2 z2 z2 | [A,,A,]2 z2 z2 | !///-!A,,3 A,3 |] %382
V:3
 z6 | z6 | z6 | z6 | z6 | z6 | z6 | z6 | z6 | z6 | z6 | z6 | z6 | z6 | z6 | z6 | z6 | z6 | z6 | %19
 z6 | z6 | z6 | z6 | z6 |[M:2/4] z4 | z4 | z4 | z4 ||[M:3/4] z6 | z6 | z6 | z6 | z6 | z6 | z6 | %35
 z6 | z6 | z6 | z6 | z6 | z6 | z6 | z6 | z6 | z6 | z6 | z6 | z6 | z6 | z6 | z6 | z6 | z6 | z6 | %54
 z6 | z6 | z6 | z6 | z6 | z6 | z6 | z6 | z6 | z6 | z6 | z6 | z6 | z6 ||[M:6/8] z6 | z6 | z6 | z6 | %72
 z6 | z6 | z6 | z6 | z6 | z6 | z6 | z6 | z6 | z6 | z6 | z6 | z6 | z6 | z6 | z6 | z6 | z6 | z6 | %91
 z6 |[M:2/4] z4 | z4 | z4 | z4 |:[M:3/4][K:treble]!ff! F6- | F2 E2 D2 | (=B,4 C2) | z6 | z6 | z6 | %102
 z6 | z6 |!ff! F6- | F2 E2 D2 | (=B,4 C2) | z6 | z6 | z6 | z6 | z6 | z6 | z6 | z6 ||1 z6 :|2 z6 | %117
 z6 | z6 ||[M:6/8] z6 | z6 | z6 | z6 | z6 | z6 | z6 | z6 | z6 | z6 | z6 | z6 | z6 | z6 | z6 | z6 | %135
 z6 | z6 | z6 | z6 | z6 | z6 | z6 | z6 ||[M:2/4] z4 | z4 | z4 | z4 ||[M:3/4] z6 | z6 | z6 | z6 | %151
 z6 | z6 | z6 | z6 | z6 | z6 | z6 | z6 | z6 | z6 | z6 | z6 | z6 | z6 | z6 | z6 | z6 | z6 | z6 | %170
 z6 | z6 | z6 | z6 | z6 | z6 | z6 | z6 | z6 | z6 | z6 | z6 | z6 |:!ff! F6- | F2 E2 D2 | (=B,4 C2) | %186
 z6 | z6 | z6 | z6 | z6 |!ff! F6- | F2 E2 D2 | (=B,4 C2) | z6 | z6 | z6 | z6 | z6 | z6 | z6 | %201
 z6 ||1 z6 :|2 z6 || z6 | z6 | z6 | z6 | z6 | z6 | z6 | z6 | z6 | z6 | z6 | z6 | z6 | z6 | z6 | %219
 z6 | z6 | z6 | z6 | z6 | z6 | z6 | z6 | z6 | z6 | z6 | z6 | z6 | z6 | z6 | z6 | z6 |: z6 | z6 | %238
 z6 | z6 | z6 | z6 | z6 ||1 z6 :|2 z6 || z6 | z6 | z6 | z6 | z6 | z6 | z6 | z6 | z6 | z6 | z6 | %256
 z6 | z6 | z6 | z6 | z6 |: z6 | z6 | z6 | z6 | z6 | z6 | z6 ||1 z6 :|2 z6 || z6 | z6 | z6 | z6 | %274
 z6 | z6 | z6 | z6 | z6 | z6 | z6 | z6 | z6 | z6 | z6 | z6 | z6 | z6 | z6 | z6 | z6 | z6 | z6 | %293
 z6 | z6 | z6 | z6 | z6 | z6 | z6 | z6 | z6 | z6 | z6 | z6 | z6 | z6 | z6 | z6 | z6 | z6 | z6 |: %312
!ff! F6- | F2 E2 D2 | (=B,4 C2) | z6 | z6 | z6 | z6 | z6 |!ff! F6- | F2 E2 D2 | (=B,4 C2) | z6 | %324
 z6 | z6 | z6 | z6 | z6 | z6 | z6 ||1 z6 :|2 z6 || z6 | z6 | z6 | z6 | z6 | z6 | z6 | z6 | z6 | %342
 z6 | z6 | z6 | z6 | z6 | z6 | z6 | z6 | z6 | z6 | z6 | z6 | z6 | z6 | z6 | z6 | z6 | z6 | z6 | %361
 z6 | z6 | [CE]2 E2 z2 | [=A,F]2 [A,F]2 z2 | z6 | [EBd]2 z2 z2 | [Ace]2 E2 z2 | [=A,F]2 [A,F]2 z2 | %369
 z6 | [EBd]2 z2 z2 | [Ace]2 [CEc]2 [DFd]2 | [Ace]2 [CEc]2 [DFd]2 | [Ace]2 [CEc]2 [DFd]2 | %374
 [Ace]2 [CEc]2 [DFd]2 | [CEA]2 [CAc]2 [CEA]2 | [CE]2 [CE]2 [CE]2 | z6 | [Ace]2 z2 z2 | %379
 [Ace]2 z2 z2 | [Ace]2 z2 z2 | z6 |] %382
V:4
 x6 | x6 | x6 | x6 | x6 | x6 | x6 | x6 | x6 | x6 | x6 | x6 | x6 | x6 | x6 | x6 | x6 | x6 | x6 | %19
 x6 | x6 | x6 | x6 | x6 |[M:2/4] x4 | x4 | x4 | x4 ||[M:3/4] x6 | x6 | x6 | x6 | x6 | x6 | x6 | %35
 x6 | x6 | x6 | [df]6 | [ce]6 | [df]6 | [ce]6 | x6 | x6 | x6 | x6 | x6 | x6 | x6 | x6 | x6 | x6 | %52
 x6 | x6 | [df]6 | [ce]6 | [df]6 | [ce]6 | x6 | x6 | x6 | x6 | x6 | x6 | x6 | x6 | x6 | x6 || %68
[M:6/8] x6 | x6 | x6 | x6 | x6 | x6 | x6 | x6 | x6 | x6 | x6 | x6 | x6 | x6 | x6 | x6 | x6 | x6 | %86
 x6 | x6 | x6 | x6 | x6 | x6 |[M:2/4] x4 | x4 | x4 | x4 |:[M:3/4] x6 | x6 | x6 | x6 | x6 | x6 | %102
 x6 | x6 | x6 | x6 | x6 | x6 | x6 | x6 | x6 | x6 | x6 | x6 | x6 ||1 x6 :|2 x6 | x6 | x6 || %119
[M:6/8] x6 | x6 | x6 | x6 | x6 | x6 | x6 | x6 | x6 | x6 | x6 | x6 | x6 | x6 | x6 | x6 | x6 | x6 | %137
 x6 | x6 | x6 | x6 | x6 | x6 ||[M:2/4] x4 | x4 | x4 | x4 ||[M:3/4] x6 | x6 | x6 | x6 | x6 | x6 | %153
 x6 | x6 | x6 | x6 | [df]6 | [ce]6 | [df]6 | [ce]6 | x6 | x6 | x6 | x6 | x6 | x6 | x6 | x6 | x6 | %170
 x6 | x6 | x6 | [df]6 | [ce]6 | [df]6 | [ce]6 | x6 | x6 | x6 | x6 | x6 | x6 |: x6 | x6 | x6 | x6 | %187
 x6 | x6 | x6 | x6 | x6 | x6 | x6 | x6 | x6 | x6 | x6 | x6 | x6 | x6 | x6 ||1 x6 :|2 x6 || x6 | %205
 x6 | x6 | x6 | x6 | x6 | x6 | x6 | [df]6 | [ce]6 | [df]6 | [ce]6 | x6 | x6 | x6 | x6 | x6 | x6 | %222
 x6 | x6 | x6 | x6 | x6 | x6 | [cf]6 | x6 | [A=d]6 | x6 | x6 | x6 | x6 | x6 |: x6 | x6 | x6 | x6 | %240
 x6 | x6 | x6 ||1 x6 :|2 x6 || x6 | x6 | x6 | x6 | x6 | x6 | x6 | x6 | x6 | x6 | x6 | x6 | x6 | %258
 x6 | x6 | x6 |: x6 | x6 | x6 | x6 | x6 | x6 | x6 ||1 x6 :|2 x6 || x6 | x6 | x6 | x6 | x6 | x6 | %276
 x6 | x6 | x6 | x6 | x6 | x6 | x6 | x6 | x6 | x6 | [df]6 | [ce]6 | [df]6 | [ce]6 | x6 | x6 | x6 | %293
 x6 | x6 | x6 | x6 | x6 | x6 | x6 | x6 | x6 | [df]6 | [ce]6 | [df]6 | [ce]6 | x6 | x6 | x6 | x6 | %310
 x6 | x6 |: x6 | x6 | x6 | x6 | x6 | x6 | x6 | x6 | x6 | x6 | x6 | x6 | x6 | x6 | x6 | x6 | x6 | %329
 x6 | x6 ||1 x6 :|2 x6 || x6 | x6 | x6 | x6 | x6 | x6 | x6 | x6 | [df]6 | [ce]6 | [df]6 | [ce]6 | %345
 x6 | x6 | x6 | x6 | x6 | x6 | x6 | x6 | x6 | x6 | x6 | x6 | [cf]6 | x6 | [A=d]6 | x6 | x6 | x6 | %363
 x6 | x6 | x6 | x6 | x6 | x6 | x6 | x6 | x6 | x6 | x6 | x6 | x6 | x6 | x6 | x6 | x6 | x6 | x6 |] %382

